src/images/icons/com_in.svg

<svg width="22" height="22" viewBox="0 0 22 22" fill="none" xmlns="http://www.w3.org/2000/svg">
<path d="M5 9V7C5 3.69 6 1 11 1C16 1 17 3.69 17 7V9M11 17.5C11.663 17.5 12.2989 17.2366 12.7678 16.7678C13.2366 16.2989 13.5 15.663 13.5 15C13.5 14.337 13.2366 13.7011 12.7678 13.2322C12.2989 12.7634 11.663 12.5 11 12.5C10.337 12.5 9.70107 12.7634 9.23223 13.2322C8.76339 13.7011 8.5 14.337 8.5 15C8.5 15.663 8.76339 16.2989 9.23223 16.7678C9.70107 17.2366 10.337 17.5 11 17.5ZM16 21H6C2 21 1 20 1 16V14C1 10 2 9 6 9H16C20 9 21 10 21 14V16C21 20 20 21 16 21Z" stroke="white" stroke-width="2" stroke-linecap="round" stroke-linejoin="round"/>
</svg>

<svg width="22" height="22" fill="none" xmlns="http://www.w3.org/2000/svg"><path d="M5 9V7c0-3.31 1-6 6-6s6 2.69 6 6v2m-6 8.5a2.5 2.5 0 1 0 0-5 2.5 2.5 0 0 0 0 5Zm5 3.5H6c-4 0-5-1-5-5v-2c0-4 1-5 5-5h10c4 0 5 1 5 5v2c0 4-1 5-5 5Z" stroke="#fff" stroke-width="2" stroke-linecap="round" stroke-linejoin="round"/></svg>
